src/images/dist/icons/tech-icon-5.svg

<svg width="24" height="30" viewBox="0 0 24 30" fill="none" xmlns="http://www.w3.org/2000/svg">
<path d="M16.1189 7.93136L17.5765 5.76754C17.6781 5.61677 17.848 5.52639 18.0298 5.52639C18.2116 5.52639 18.3814 5.61677 18.483 5.76754L21.9421 10.9027C22.5556 11.7384 22.8798 12.7294 22.8798 13.7696C22.8798 15.217 22.2423 16.5181 21.2336 17.4075M16.1189 7.93136L11.612 1.24115C11.5105 1.09038 11.3406 1 11.1588 1C10.9771 1 10.8072 1.09038 10.7057 1.24115L2.96909 12.7257C1.67824 14.4799 0.996094 16.5606 0.996094 18.7441C0.996094 24.3479 5.5551 28.9069 11.1588 28.9069C16.7626 28.9069 21.3216 24.3479 21.3216 18.7441C21.3216 18.2968 21.2917 17.8486 21.2336 17.4075M16.1189 7.93136L14.1174 10.9027C13.504 11.7384 13.1798 12.7295 13.1798 13.7696C13.1798 16.4439 15.3555 18.6196 18.0298 18.6196C18.8117 18.6196 20.1276 18.2783 21.2336 17.4075" stroke="#211E1E" stroke-width="1.00258"/>
<path d="M4.49609 17C4.66276 18.8333 5.69609 22.8 8.49609 24" stroke="#211E1E" stroke-linecap="round"/>
</svg>

<svg width="24" height="30" fill="none" xmlns="http://www.w3.org/2000/svg"><path d="M16.119 7.931l1.457-2.163a.547.547 0 01.907 0l3.46 5.135a4.81 4.81 0 01.937 2.867 4.84 4.84 0 01-1.646 3.637m-5.115-9.476l-4.507-6.69a.546.546 0 00-.906 0L2.969 12.726a10.084 10.084 0 00-1.973 6.018c0 5.604 4.56 10.163 10.163 10.163 5.604 0 10.163-4.56 10.163-10.163 0-.447-.03-.895-.088-1.337m-5.115-9.476l-2.002 2.972a4.812 4.812 0 00-.937 2.867 4.855 4.855 0 004.85 4.85c.782 0 2.098-.342 3.204-1.213" stroke="#211E1E" stroke-width="1.003"/><path d="M4.496 17c.167 1.833 1.2 5.8 4 7" stroke="#211E1E" stroke-linecap="round"/></svg>
